X: 283
%
U:~=!turn!
T: Lady Anderson
C:James Scott Skinner
O:Scotland
B:Keith Norman MacDonald : "The Skye collection of the best reels & strathspeys extant" : 1887
Z:Ralph Palmer
R:Reel
M:C
L:1/8
K:D
A | {/c}d>A A/2A/2A (FA)DF | G>E E/2E/2E (CE)A,A | {/c}d>A A/2A/2A (FA)DF | GECE D2-D :|
A | {/e}dcdf {/f}e^deg | fdcd AFDc | {/e}dcdf {/f}e^deg | fdec d2-d>A |
{/e}dcdf {/f}e^deg | fdcd AFDF | {GA}GFGB {/B}A^GA=g | fdec d2-d |]


